icons/core/settings.svg

<svg width="32" height="32" viewBox="0 0 32 32" fill="none" xmlns="http://www.w3.org/2000/svg">
<path fill-rule="evenodd" clip-rule="evenodd" d="M16 10C12.6863 10 10 12.6863 10 16C10 19.3137 12.6863 22 16 22C19.3137 22 22 19.3137 22 16C22 12.6863 19.3137 10 16 10ZM12 16C12 13.7909 13.7909 12 16 12C18.2091 12 20 13.7909 20 16C20 18.2091 18.2091 20 16 20C13.7909 20 12 18.2091 12 16Z" fill="black"/>
<path fill-rule="evenodd" clip-rule="evenodd" d="M13.5753 2C12.6238 2 11.8041 2.67028 11.6151 3.60277L11.099 6.14972C10.6913 6.35293 10.2981 6.58065 9.92125 6.83091L7.46228 6.00604C6.56 5.70337 5.56941 6.07841 5.09383 6.90275L2.66901 11.1058C2.19367 11.9297 2.3644 12.9744 3.07729 13.6042L5.02068 15.3209C5.00698 15.5456 5.00003 15.772 5.00003 16C5.00003 16.228 5.00698 16.4544 5.02068 16.6791L3.07729 18.3958C2.36439 19.0256 2.19367 20.0703 2.66901 20.8942L5.09383 25.0972C5.56941 25.9216 6.56 26.2966 7.46228 25.994L9.92125 25.1691C10.298 25.4194 10.6913 25.6471 11.099 25.8503L11.6151 28.3972C11.8041 29.3297 12.6238 30 13.5753 30H18.4247C19.3761 30 20.1959 29.3297 20.3849 28.3972L20.901 25.8503C21.3087 25.6471 21.7019 25.4194 22.0788 25.1691L24.5376 25.9939C25.4398 26.2966 26.4304 25.9215 26.906 25.0972L29.3309 20.8941C29.8062 20.0702 29.6355 19.0255 28.9226 18.3958L26.9794 16.6792C26.9931 16.4545 27 16.228 27 16C27 15.772 26.9931 15.5455 26.9794 15.3208L28.9226 13.6042C29.6355 12.9745 29.8062 11.9298 29.3309 11.1059L26.906 6.90279C26.4304 6.07845 25.4398 5.70341 24.5376 6.00608L22.0788 6.83089C21.7019 6.58061 21.3087 6.35288 20.901 6.14966L20.3849 3.60277C20.1959 2.67028 19.3761 2 18.4247 2H13.5753ZM13.5753 4H18.4247L19.0407 7.0398C19.1053 7.35843 19.3207 7.62578 19.6183 7.75663C20.2256 8.02359 20.798 8.35587 21.3267 8.74474C21.5889 8.93762 21.9286 8.99079 22.2372 8.88726L25.1736 7.90224L27.5985 12.1053L25.2786 14.1546C25.0352 14.3696 24.9113 14.6895 24.9465 15.0124C24.9819 15.3364 25 15.6659 25 16C25 16.3341 24.9819 16.6636 24.9465 16.9876C24.9113 17.3105 25.0352 17.6304 25.2786 17.8454L27.5985 19.8947L25.1736 24.0978L22.2372 23.1127C21.9286 23.0092 21.5889 23.0624 21.3267 23.2553C20.798 23.6441 20.2256 23.9764 19.6183 24.2434C19.3207 24.3742 19.1053 24.6416 19.0407 24.9602L18.4247 28H13.5753L12.9592 24.9601C12.8947 24.6415 12.6792 24.3742 12.3816 24.2433C11.7744 23.9764 11.202 23.6441 10.6734 23.2552C10.4111 23.0624 10.0714 23.0092 9.7628 23.1127L6.8262 24.0978L4.40138 19.8948L6.72143 17.8453C6.96487 17.6303 7.0887 17.3104 7.0535 16.9875C7.01819 16.6635 7.00003 16.3341 7.00003 16C7.00003 15.6659 7.01819 15.3365 7.0535 15.0125C7.0887 14.6896 6.96487 14.3697 6.72143 14.1547L4.40138 12.1052L6.8262 7.9022L9.7628 8.88728C10.0714 8.99081 10.4111 8.93764 10.6734 8.74476C11.202 8.3559 11.7744 8.02363 12.3816 7.75667C12.6792 7.62583 12.8947 7.35848 12.9592 7.03985L13.5753 4Z" fill="black"/>
</svg>

<svg width="32" height="32" viewBox="0 0 32 32" xmlns="http://www.w3.org/2000/svg">
    <path fill-rule="evenodd" d="M16 10a6 6 0 100 12 6 6 0 000-12zm-4 6a4 4 0 118 0 4 4 0 01-8 0zM13.575 2a2 2 0 00-1.96 1.603L11.1 6.15c-.408.203-.8.43-1.178.68l-2.459-.824a2 2 0 00-2.368.897l-2.425 4.203a2 2 0 00.408 2.498l1.944 1.717a11.157 11.157 0 000 1.358l-1.944 1.717a2 2 0 00-.408 2.498l2.425 4.203a2 2 0 002.368.897l2.46-.825c.376.25.77.478 1.177.681l.516 2.547A2 2 0 0013.575 30h4.85a2 2 0 001.96-1.603l.516-2.547c.408-.203.8-.43 1.178-.68l2.459.824a2 2 0 002.368-.897l2.425-4.203a2 2 0 00-.408-2.498l-1.944-1.717a11.16 11.16 0 000-1.358l1.944-1.717a2 2 0 00.408-2.498l-2.425-4.203a2 2 0 00-2.368-.897l-2.46.825a11 11 0 00-1.177-.681l-.516-2.547A2 2 0 0018.425 2h-4.85zm0 2h4.85l.616 3.04a1 1 0 00.577.717c.608.267 1.18.599 1.709.988a1 1 0 00.91.142l2.937-.985 2.425 4.203-2.32 2.05a1 1 0 00-.332.857 9.09 9.09 0 010 1.976 1 1 0 00.332.857l2.32 2.05-2.425 4.203-2.937-.985a1 1 0 00-.91.142 8.994 8.994 0 01-1.709.988 1 1 0 00-.577.717L18.425 28h-4.85l-.616-3.04a1 1 0 00-.577-.717 8.982 8.982 0 01-1.709-.988 1 1 0 00-.91-.142l-2.937.985-2.425-4.203 2.32-2.05a1 1 0 00.332-.857 9.112 9.112 0 010-1.976 1 1 0 00-.332-.857l-2.32-2.05 2.425-4.203 2.937.985a1 1 0 00.91-.142 8.987 8.987 0 011.709-.988 1 1 0 00.577-.717L13.575 4z"/>
</svg>
